svg/fluentui-system-icons/ic_fluent_camera_off_24_filled.svg

<svg width="24" height="24" viewBox="0 0 24 24" fill="none" xmlns="http://www.w3.org/2000/svg">
<path d="M2.21968 2.21966C2.51257 1.92677 2.98745 1.92678 3.28034 2.21968L21.7801 20.7198C22.073 21.0127 22.073 21.4876 21.7801 21.7805C21.4872 22.0734 21.0123 22.0734 20.7194 21.7805L19.7743 20.8353C19.4523 20.9422 19.1079 21 18.75 21H5.25C3.45507 21 2 19.5449 2 17.75V8.25C2 6.84663 2.88949 5.651 4.13545 5.19615L2.21966 3.28032C1.92677 2.98743 1.92678 2.51255 2.21968 2.21966ZM13.8224 14.8833C13.3172 15.2701 12.6854 15.5 12 15.5C10.3431 15.5 9 14.1569 9 12.5C9 11.8145 9.22989 11.1828 9.61678 10.6776L8.54993 9.61072C7.89459 10.3924 7.5 11.4001 7.5 12.5C7.5 14.9853 9.51472 17 12 17C13.0998 17 14.1075 16.6054 14.8892 15.9501L13.8224 14.8833ZM16.4369 13.2552C16.4784 13.0096 16.5 12.7573 16.5 12.5C16.5 10.0147 14.4853 8 12 8C11.7427 8 11.4904 8.0216 11.2449 8.06307L7.65437 4.47243L8.205 3.5757C8.61425 2.90921 9.34026 2.50305 10.1224 2.50305H13.9247C14.7225 2.50305 15.4607 2.92553 15.8647 3.61342L16.6793 5H18.75C20.5449 5 22 6.45508 22 8.25V17.75C22 18.0741 21.9526 18.3872 21.8642 18.6826L16.4369 13.2552Z" fill="#212121"/>
</svg>

<svg xmlns="http://www.w3.org/2000/svg" width="24" height="24"><path d="M2.22 2.22a.75.75 0 0 1 1.06 0l18.5 18.5a.75.75 0 0 1-1.06 1.06l-.946-.945A3.245 3.245 0 0 1 18.75 21H5.25A3.25 3.25 0 0 1 2 17.75v-9.5c0-1.403.89-2.599 2.135-3.054L2.22 3.28a.75.75 0 0 1 0-1.06Zm11.602 12.663a3 3 0 0 1-4.206-4.206L8.55 9.612a4.5 4.5 0 0 0 6.34 6.34l-1.068-1.068Zm2.615-1.628a4.5 4.5 0 0 0-5.192-5.192l-3.59-3.59.55-.897a2.25 2.25 0 0 1 1.917-1.073h3.803a2.25 2.25 0 0 1 1.94 1.11L16.679 5h2.071A3.25 3.25 0 0 1 22 8.25v9.5c0 .324-.047.637-.136.933l-5.427-5.428Z"/></svg>
